!!!COM:      Bach, Johann Sebastian
!!!CDT:      1685/03/31/-1750/07/28/
!!!OPR@@GER: Das wohltemperirte Clavier
!!!OVM@@GER: Band I
!!!OPR@ENG:  Well-Tempered Clavier
!!!OVM@ENG:  Book I
!!!OTL:      Prelude
!!!OKY:      C minor
!!!ONM:      no. 2
!!!SCT:      BWV 847
!!!OMV:      1
**kern	**kern	**kern	**kern	**kern
*staff2.1	*staffX	*staffX	*staffX	*staff1.1
*clefF4	*clefF4	*clefF4	*clefG2	*clefG2
*k[b-e-a-]	*k[b-e-a-]	*k[b-e-a-]	*k[b-e-a-]	*k[b-e-a-]
*c:	*c:	*c:	*c:	*c:
*M4/4	*M4/4	*M4/4	*M4/4	*M4/4
*met(c)	*met(c)	*met(c)	*met(c)	*met(c)
*MM108	*MM108	*MM108	*MM108	*MM108
=1-	=1-	=1-	=1-	=1-
16CLL	1ryy	1ryy	1ryy	16ccLL
16G	.	.	.	16e-
16F	.	.	.	16d
16GJJ	.	.	.	16e-JJ
16E-LL	.	.	.	16cLL
16G	.	.	.	16e-
16F	.	.	.	16d
16GJJ	.	.	.	16e-JJ
16CLL	.	.	.	16ccLL
16G	.	.	.	16e-
16F	.	.	.	16d
16GJJ	.	.	.	16e-JJ
16E-LL	.	.	.	16cLL
16G	.	.	.	16e-
16F	.	.	.	16d
16GJJ	.	.	.	16e-JJ
=2	=2	=2	=2	=2
16CLL	1ryy	1ryy	1ryy	16a-LL
16A-	.	.	.	16f
16G	.	.	.	16en
16A-JJ	.	.	.	16fJJ
16FLL	.	.	.	16cLL
16A-	.	.	.	16f
16G	.	.	.	16e
16A-JJ	.	.	.	16fJJ
16CLL	.	.	.	16a-LL
16A-	.	.	.	16f
16G	.	.	.	16e
16A-JJ	.	.	.	16fJJ
16FLL	.	.	.	16cLL
16A-	.	.	.	16f
16G	.	.	.	16e
16A-JJ	.	.	.	16fJJ
=3	=3	=3	=3	=3
16CLL	1ryy	1ryy	1ryy	16bnLL
16A-	.	.	.	16f
16G	.	.	.	16e-X
16A-JJ	.	.	.	16fJJ
16FLL	.	.	.	16dLL
16A-	.	.	.	16f
16G	.	.	.	16e-
16A-JJ	.	.	.	16fJJ
16CLL	.	.	.	16bLL
16A-	.	.	.	16f
16G	.	.	.	16e-
16A-JJ	.	.	.	16fJJ
16FLL	.	.	.	16dLL
16A-	.	.	.	16f
16G	.	.	.	16e-
16A-JJ	.	.	.	16fJJ
!!LO:LB:g=z
=4	=4	=4	=4	=4
16CLL	1ryy	1ryy	1ryy	16ccLL
16E-	.	.	.	16g
16D	.	.	.	16f
16E-JJ	.	.	.	16gJJ
16GLL	.	.	.	16e-LL
16E-	.	.	.	16g
16D	.	.	.	16f
16E-JJ	.	.	.	16gJJ
16CLL	.	.	.	16ccLL
16E-	.	.	.	16g
16D	.	.	.	16f
16E-JJ	.	.	.	16gJJ
16GLL	.	.	.	16e-LL
16E-	.	.	.	16g
16D	.	.	.	16f
16E-JJ	.	.	.	16gJJ
=5	=5	=5	=5	=5
16CLL	1ryy	1ryy	1ryy	16ee-LL
16c	.	.	.	16a-
16B-	.	.	.	16g
16cJJ	.	.	.	16a-JJ
16A-LL	.	.	.	16e-LL
16c	.	.	.	16a-
16B-	.	.	.	16g
16cJJ	.	.	.	16a-JJ
16CLL	.	.	.	16ee-LL
16c	.	.	.	16a-
16B-	.	.	.	16g
16cJJ	.	.	.	16a-JJ
16A-LL	.	.	.	16e-LL
16c	.	.	.	16a-
16B-	.	.	.	16g
16cJJ	.	.	.	16a-JJ
=6	=6	=6	=6	=6
16CLL	1ryy	1ryy	1ryy	16ddLL
16An	.	.	.	16f#
16G	.	.	.	16en
16AJJ	.	.	.	16f#JJ
16F#LL	.	.	.	16dLL
16A	.	.	.	16f#
16G	.	.	.	16e
16AJJ	.	.	.	16f#JJ
16CLL	.	.	.	16ddLL
16A	.	.	.	16f#
16G	.	.	.	16e
16AJJ	.	.	.	16f#JJ
16F#LL	.	.	.	16dLL
16A	.	.	.	16f#
16G	.	.	.	16e
16AJJ	.	.	.	16f#JJ
!!LO:LB:g=z
=7	=7	=7	=7	=7
16BB-LL	1ryy	1ryy	1ryy	16ddLL
16B-	.	.	.	16g
16An	.	.	.	16f#
16B-JJ	.	.	.	16gJJ
16GLL	.	.	.	16dLL
16B-	.	.	.	16g
16A	.	.	.	16f#
16B-JJ	.	.	.	16gJJ
16BB-LL	.	.	.	16ddLL
16B-	.	.	.	16g
16A	.	.	.	16f#
16B-JJ	.	.	.	16gJJ
16GLL	.	.	.	16dLL
16B-	.	.	.	16g
16A	.	.	.	16f#
16B-JJ	.	.	.	16gJJ
=8	=8	=8	=8	=8
16BB-LL	1ryy	1ryy	1ryy	16ccLL
16G	.	.	.	16en
16F	.	.	.	16d
16GJJ	.	.	.	16eJJ
16EnLL	.	.	.	16cLL
16G	.	.	.	16e
16F	.	.	.	16d
16GJJ	.	.	.	16eJJ
16BBLL-	.	.	.	16ccLL
16G	.	.	.	16e
16F	.	.	.	16d
16GJJ	.	.	.	16eJJ
16ELL	.	.	.	16cLL
16G	.	.	.	16e
16F	.	.	.	16d
16GJJ	.	.	.	16eJJ
=9	=9	=9	=9	=9
16AA-LL	1ryy	1ryy	1ryy	16ccLL
16A-	.	.	.	16f
16G	.	.	.	16en
16A-JJ	.	.	.	16fJJ
16FLL	.	.	.	16cLL
16A-	.	.	.	16f
16G	.	.	.	16e
16A-JJ	.	.	.	16fJJ
16AA-LL	.	.	.	16ccLL
16A-	.	.	.	16f
16G	.	.	.	16e
16A-JJ	.	.	.	16fJJ
16FLL	.	.	.	16cLL
16A-	.	.	.	16f
16G	.	.	.	16e
16A-JJ	.	.	.	16fJJ
!!LO:LB:g=z
=10	=10	=10	=10	=10
16AA-LL	1ryy	1ryy	1ryy	16b-LL
16D	.	.	.	16f
16C	.	.	.	16e-X
16DJJ	.	.	.	16fJJ
16FLL	.	.	.	16dLL
16D	.	.	.	16f
16C	.	.	.	16e-
16DJJ	.	.	.	16fJJ
16AALL-	.	.	.	16b-LL
16D	.	.	.	16f
16C	.	.	.	16e-
16DJJ	.	.	.	16fJJ
16FLL	.	.	.	16dLL
16D	.	.	.	16f
16C	.	.	.	16e-
16DJJ	.	.	.	16fJJ
=11	=11	=11	=11	=11
16GGLL	1ryy	1ryy	1ryy	16b-LL
16E-	.	.	.	16g
16D	.	.	.	16f
16E-JJ	.	.	.	16gJJ
16GLL	.	.	.	16e-LL
16E-	.	.	.	16g
16D	.	.	.	16f
16E-JJ	.	.	.	16gJJ
16GGLL	.	.	.	16b-LL
16E-	.	.	.	16g
16D	.	.	.	16f
16E-JJ	.	.	.	16gJJ
16GLL	.	.	.	16e-LL
16E-	.	.	.	16g
16D	.	.	.	16f
16E-JJ	.	.	.	16gJJ
=12	=12	=12	=12	=12
16CLL	1ryy	1ryy	1ryy	16a-LL
16E-	.	.	.	16g
16D	.	.	.	16f
16E-JJ	.	.	.	16gJJ
16A-LL	.	.	.	16e-LL
16E-	.	.	.	16g
16D	.	.	.	16f
16E-JJ	.	.	.	16gJJ
16CLL	.	.	.	16a-LL
16E-	.	.	.	16g
16D	.	.	.	16f
16E-JJ	.	.	.	16gJJ
16A-LL	.	.	.	16e-LL
16E-	.	.	.	16g
16D	.	.	.	16f
16E-JJ	.	.	.	16gJJ
!!LO:LB:g=z
=13	=13	=13	=13	=13
16DLL	1ryy	1ryy	1ryy	16a-LL
16F	.	.	.	16d
16E-	.	.	.	16c
16FJJ	.	.	.	16dJJ
16A-LL	.	.	.	16B-LL
16F	.	.	.	16d
16E-	.	.	.	16c
16FJJ	.	.	.	16dJJ
16DLL	.	.	.	16a-LL
16F	.	.	.	16d
16E-	.	.	.	16c
16FJJ	.	.	.	16dJJ
16A-LL	.	.	.	16B-LL
16F	.	.	.	16d
16E-	.	.	.	16c
16FJJ	.	.	.	16dJJ
=14	=14	=14	=14	=14
16E-LL	1ryy	1ryy	1ryy	16gLL
16G	.	.	.	16B-
16F	.	.	.	16A-
16GJJ	.	.	.	16B-JJ
16A-LL	.	.	.	16e-LL
16G	.	.	.	16B-
16F	.	.	.	16A-
16GJJ	.	.	.	16B-JJ
16E-LL	.	.	.	16gLL
16G	.	.	.	16B-
16F	.	.	.	16A-
16GJJ	.	.	.	16B-JJ
16A-LL	.	.	.	16e-LL
16G	.	.	.	16B-
16F	.	.	.	16A-
16GJJ	.	.	.	16B-JJ
=15	=15	=15	=15	=15
16E-LL	1ryy	1ryy	1ryy	16fLL
16An	.	.	.	16c
16G	.	.	.	16B-
16AJJ	.	.	.	16cJJ
16FLL	.	.	.	16AnLL
16A	.	.	.	16c
16G	.	.	.	16B-
16AJJ	.	.	.	16cJJ
16E-LL	.	.	.	16fLL
16A	.	.	.	16c
16G	.	.	.	16B-
16AJJ	.	.	.	16cJJ
16FLL	.	.	.	16ALL
16A	.	.	.	16c
16G	.	.	.	16B-
16AJJ	.	.	.	16cJJ
!!LO:LB:g=z
=16	=16	=16	=16	=16
16DLL	1ryy	1ryy	1ryy	16fLL
16F	.	.	.	16d
16E-	.	.	.	16c
16FJJ	.	.	.	16dJJ
16A-XLL	.	.	.	16BnLL
16F	.	.	.	16d
16E-	.	.	.	16c
16FJJ	.	.	.	16dJJ
16DLL	.	.	.	16fLL
16F	.	.	.	16d
16E-	.	.	.	16c
16FJJ	.	.	.	16dJJ
16A-LL	.	.	.	16BLL
16F	.	.	.	16d
16E-	.	.	.	16c
16FJJ	.	.	.	16dJJ
=17	=17	=17	=17	=17
16CLL	1ryy	1ryy	1ryy	16fLL
16F	.	.	.	16d
16En	.	.	.	16c
16FJJ	.	.	.	16dJJ
16A-LL	.	.	.	16BnLL
16F	.	.	.	16d
16E	.	.	.	16c
16FJJ	.	.	.	16dJJ
16CLL	.	.	.	16fLL
16F	.	.	.	16d
16E	.	.	.	16c
16FJJ	.	.	.	16dJJ
16A-LL	.	.	.	16BLL
16F	.	.	.	16d
16E	.	.	.	16c
16FJJ	.	.	.	16dJJ
=18	=18	=18	=18	=18
16CLL	1ryy	1ryy	1ryy	16e-LL
16E-X	.	.	.	16c
16D	.	.	.	16Bn
16E-JJ	.	.	.	16cJJ
16FLL	.	.	.	16GLL
16E-	.	.	.	16c
16D	.	.	.	16B
16E-JJ	.	.	.	16cJJ
16CLL	.	.	.	16e-LL
16E-	.	.	.	16c
16D	.	.	.	16B
16E-JJ	.	.	.	16cJJ
16FLL	.	.	.	16GLL
16E-	.	.	.	16c
16D	.	.	.	16B
16E-JJ	.	.	.	16cJJ
!!LO:LB:g=z
=19	=19	=19	=19	=19
16AA-LL	1ryy	1ryy	1ryy	16FLL
16C	.	.	.	16e-
16BBn	.	.	.	16d
16CJJ	.	.	.	16e-JJ
16DLL	.	.	.	16fLL
16C	.	.	.	16e-
16BB	.	.	.	16d
16CJJ	.	.	.	16e-JJ
16AA-LL	.	.	.	16FLL
16C	.	.	.	16e-
16BB	.	.	.	16d
16CJJ	.	.	.	16e-JJ
16DLL	.	.	.	16fLL
16C	.	.	.	16e-
16BB	.	.	.	16d
16CJJ	.	.	.	16e-JJ
=20	=20	=20	=20	=20
16AAnLL	1ryy	1ryy	1ryy	16F#LL
16E-	.	.	.	16c
16D	.	.	.	16Bn
16E-JJ	.	.	.	16cJJ
16CLL	.	.	.	16e-LL
16E-	.	.	.	16c
16D	.	.	.	16B
16E-JJ	.	.	.	16cJJ
16AALL	.	.	.	16F#LL
16E-	.	.	.	16c
16D	.	.	.	16B
16E-JJ	.	.	.	16cJJ
16CLL	.	.	.	16e-LL
16E-	.	.	.	16c
16D	.	.	.	16B
16E-JJ	.	.	.	16cJJ
=21	=21	=21	=21	=21
16GGLL	1ryy	1ryy	1ryy	16e-LL
16E-	.	.	.	16c
16D	.	.	.	16Bn
16E-JJ	.	.	.	16cJJ
16FLL	.	.	.	16GLL
16E-	.	.	.	16c
16D	.	.	.	16B
16E-JJ	.	.	.	16cJJ
16GGLL	.	.	.	16e-LL
16E-	.	.	.	16c
16D	.	.	.	16B
16E-JJ	.	.	.	16cJJ
16FLL	.	.	.	16GLL
16E-	.	.	.	16c
16D	.	.	.	16B
16E-JJ	.	.	.	16cJJ
!!LO:LB:g=z
=22	=22	=22	=22	=22
16GGLL	1ryy	1ryy	1ryy	16f#LL
16E-	.	.	.	16c
16D	.	.	.	16Bn
16E-JJ	.	.	.	16cJJ
16CLL	.	.	.	16AnLL
16E-	.	.	.	16c
16D	.	.	.	16B
16E-JJ	.	.	.	16cJJ
16GGLL	.	.	.	16f#LL
16E-	.	.	.	16c
16D	.	.	.	16B
16E-JJ	.	.	.	16cJJ
16CLL	.	.	.	16ALL
16E-	.	.	.	16c
16D	.	.	.	16B
16E-JJ	.	.	.	16cJJ
=23	=23	=23	=23	=23
16GGLL	1ryy	1ryy	1ryy	16gLL
16E-	.	.	.	16c
16D	.	.	.	16Bn
16E-JJ	.	.	.	16cJJ
16FLL	.	.	.	16dLL
16E-	.	.	.	16c
16D	.	.	.	16B
16E-JJ	.	.	.	16cJJ
16GGLL	.	.	.	16gLL
16E-	.	.	.	16c
16D	.	.	.	16B
16E-JJ	.	.	.	16cJJ
16FLL	.	.	.	16dLL
16E-	.	.	.	16c
16D	.	.	.	16B
16E-JJ	.	.	.	16cJJ
=24	=24	=24	=24	=24
16GGLL	1ryy	1ryy	1ryy	16a-LL
16E-	.	.	.	16c
16D	.	.	.	16Bn
16E-JJ	.	.	.	16cJJ
16FLL	.	.	.	16dLL
16E-	.	.	.	16c
16D	.	.	.	16B
16E-JJ	.	.	.	16cJJ
16GGLL	.	.	.	16a-LL
16E-	.	.	.	16c
16D	.	.	.	16B
16E-JJ	.	.	.	16cJJ
16FLL	.	.	.	16dLL
16E-	.	.	.	16c
16D	.	.	.	16B
16E-JJ	.	.	.	16cJJ
!!LO:LB:g=z
=25	=25	=25	=25	=25
16GG\LL	1ryy	1ryy	1ryy	1ryy
16BBn\	.	.	.	.
16D\JJ	.	.	.	.
16F/	.	.	.	.
16A-/LL	.	.	.	.
16F/	.	.	.	.
16En/	.	.	.	.
16F/JJ	.	.	.	.
16Bn/LL	.	.	.	.
16F/	.	.	.	.
16d/	.	.	.	.
16B/JJ	.	.	.	.
16A-/LL	.	.	.	.
16F/	.	.	.	.
16En/	.	.	.	.
16F/JJ	.	.	.	.
=26	=26	=26	=26	=26
16GG\LL	1ryy	1ryy	1ryy	1ryy
16C\	.	.	.	.
16E-\JJ	.	.	.	.
16G/	.	.	.	.
16c/LL	.	.	.	.
16G/	.	.	.	.
16F#/	.	.	.	.
16G/JJ	.	.	.	.
*staff1.2	*	*	*	*
16e-\LL	.	.	.	.
16c\	.	.	.	.
16g\	.	.	.	.
16e-\JJ	.	.	.	.
*staff2.1	*	*	*	*
16c/LL	.	.	.	.
16A-/	.	.	.	.
16G/	.	.	.	.
16A-/JJ	.	.	.	.
=27	=27	=27	=27	=27
16GG\LL	1ryy	1ryy	1ryy	1ryy
16AAn\	.	.	.	.
16F#\JJ	.	.	.	.
*staff1.2	*	*	*	*
16c/	.	.	.	.
16e-/LL	.	.	.	.
16c/	.	.	.	.
16Bn/	.	.	.	.
16c/JJ	.	.	.	.
16f#X/LL	.	.	.	.
16c/	.	.	.	.
16an/	.	.	.	.
16f#/JJ	.	.	.	.
16e-/LL	.	.	.	.
16c/	.	.	.	.
16Bn/	.	.	.	.
16c/JJ	.	.	.	.
!!LO:LB:g=z
=28	=28	=28	=28	=28
!!!OMD: Presto
*MM140	*MM140	*MM140	*MM140	*MM140
*staff2.1	*	*	*	*
[1GG	1ryy	1ryy	1ryy	16r
.	.	.	.	16ddLL
.	.	.	.	16cc
.	.	.	.	16ddJJ
.	.	.	.	16ee-LL
.	.	.	.	16cc
.	.	.	.	16bn
.	.	.	.	16ccJJ
.	.	.	.	16anLL
.	.	.	.	16cc
.	.	.	.	16bn
.	.	.	.	16ccJJ
.	.	.	.	16ddLL
.	.	.	.	16b
.	.	.	.	16a
.	.	.	.	16bJJ
=29	=29	=29	=29	=29
16GG]LL	1ryy	1ryy	1ryy	16g/LL
16d	.	.	.	16bn/
16c	.	.	.	16an/
16dJJ	.	.	.	16b/JJ
16e-LL	.	.	.	16cc/LL
16c	.	.	.	16an/
16Bn	.	.	.	16g/
16cJJ	.	.	.	16a/JJ
16AnLL	.	.	.	16f#/LL
16c	.	.	.	16a/
16Bn	.	.	.	16g/
16cJJ	.	.	.	16a/JJ
16dLL	.	.	.	16bn/LL
16B	.	.	.	16g/
16A	.	.	.	16f#/
16BJJ	.	.	.	16g/JJ
=30	=30	=30	=30	=30
16GLL	1ryy	1ryy	1ryy	16d/LL
16Bn	.	.	.	16gg/
16An	.	.	.	16ff/
16BJJ	.	.	.	16gg/JJ
16cLL	.	.	.	16aa-/LL
16A-	.	.	.	16ff/
16G	.	.	.	16ee-/
16A-JJ	.	.	.	16ff/JJ
16FLL	.	.	.	16dd/LL
16An	.	.	.	16ff/
16G	.	.	.	16ee-/
16AJJ	.	.	.	16ff/JJ
16BnLL	.	.	.	16gg/LL
16G	.	.	.	16ee-/
16F	.	.	.	16dd/
16GJJ	.	.	.	16ee-/JJ
!!LO:LB:g=z
=31	=31	=31	=31	=31
16E-LL	1ryy	1ryy	1ryy	16ccLL
*staff1.2	*	*	*	*
*clefG2	*	*	*	*
16g	.	.	.	16ee-
16f	.	.	.	16dd
16gJJ	.	.	.	16ee-JJ
16a-LL	.	.	.	16ffLL
16f	.	.	.	16dd
16e-	.	.	.	16cc
16fJJ	.	.	.	16ddJJ
16dLL	.	.	.	16bnLL
16f	.	.	.	16dd
16e-	.	.	.	16cc
16fJJ	.	.	.	16ddJJ
16gLL	.	.	.	16ee-LL
16e-	.	.	.	16cc
16d	.	.	.	16b
16e-JJ	.	.	.	16ccJJ
=32	=32	=32	=32	=32
16cLL	1ryy	1ryy	1ryy	16gLL
16e-	.	.	.	16cc
16d	.	.	.	16bn
16e-JJ	.	.	.	16ccJJ
16fLL	.	.	.	16a-LL
16d	.	.	.	16ff
16c	.	.	.	16ee-
16dJJ	.	.	.	16ffJJ
16e-LL	.	.	.	16gLL
16c	.	.	.	16ee-
16Bn	.	.	.	16dd
16cJJ	.	.	.	16eeJJ-
16dLL	.	.	.	16fLL
*staff2.1	*	*	*	*
*clefF4	*	*	*	*
16Bn	.	.	.	16dd
16An	.	.	.	16cc
16BJJ	.	.	.	16ddJJ
=33	=33	=33	=33	=33
16cLL	1ryy	1ryy	1ryy	16e-LL
16e-	.	.	.	16cc
16d	.	.	.	16bn
16e-JJ	.	.	.	16ccJJ
16FLL	.	.	.	16a-LL
16d	.	.	.	16f
16c	.	.	.	16e-
16dJJ	.	.	.	16fJJ
16E-LL	.	.	.	16gLL
16c	.	.	.	16e-
16Bn	.	.	.	16d
16cJJ	.	.	.	16e-JJ
16DLL	.	.	.	16fLL
16Bn	.	.	.	16d
16An	.	.	.	16c
16BJJ	.	.	.	16dJJ
=34	=34	=34	=34	=34
!!!OMD: Adagio
*staff2.2	*staff2.3u	*staff2.1	*staff1.2	*staff1.1
*MM34	*MM34	*MM34	*MM34	*MM34
4C	4G	4B-X	4c	[8enL
.	.	.	.	32e]LL
.	.	.	.	32c
.	.	.	.	32d
.	.	.	.	32eJJJ
4r	4r	4ryy	4ryy	64fLLLL
.	.	.	.	64g
.	.	.	.	64an
.	.	.	.	64b-
.	.	.	.	64cc
.	.	.	.	64b-
.	.	.	.	64a
.	.	.	.	64gJJ
.	.	.	.	16f
.	.	.	.	32gL
.	.	.	.	32enJJJ
4C	4F	4A-X	4c	[8fWL
.	.	.	.	32f]LL
.	.	.	.	32g
.	.	.	.	32f
.	.	.	.	32enJJJ
4r	4r	4ryy	4ryy	32fLLL
.	.	.	.	32g
.	.	.	.	32a-
.	.	.	.	32g
.	.	.	.	64fL
.	.	.	.	64e-
.	.	.	.	64d
.	.	.	.	64e-
.	.	.	.	64f
.	.	.	.	64d
.	.	.	.	64e-
.	.	.	.	64fJJJJ
*staff2.2	*staffX	*staffX	*staff2.3u	*staff2.1
*	*	*	*clefF4	*clefF4
=35	=35	=35	=35	=35
*MM112	*MM112	*MM112	*MM112	*MM112
!!!OMD: Allegro
16r	1ryy	1ryy	16ryy	8.BnL
[8.CC	.	.	16CCLK	.
.	.	.	[8BBnJ	.
.	.	.	.	16DkJ
4CC_	.	.	4BB_	16FLL
.	.	.	.	16A-
.	.	.	.	16G
.	.	.	.	16FJJ
2CC]	.	.	2BB]	16BnLL
.	.	.	.	16F
.	.	.	.	16d
.	.	.	.	16FJJ
.	.	.	.	16BLL
.	.	.	.	16A-
.	.	.	.	16G
.	.	.	.	16FJJ
=36	=36	=36	=36	=36
1ryy	1ryy	1ryy	1ryy	16EnLL
.	.	.	.	16d-
.	.	.	.	16B-X
.	.	.	.	16GJJ
.	.	.	.	16cLL
.	.	.	.	16A-
.	.	.	.	16F
.	.	.	.	16A-JJ
.	.	.	.	16GLL
.	.	.	.	16B-
.	.	.	.	16G
.	.	.	.	16EnJJ
.	.	.	.	16A-LL
.	.	.	.	16F
.	.	.	.	16Dn
.	.	.	.	16FJJ
=37	=37	=37	=37	=37
2ryy	1ryy	1ryy	2ryy	16EnLL
.	.	.	.	16G
.	.	.	.	16E
.	.	.	.	16CJJ
.	.	.	.	16FLL
.	.	.	.	16D
.	.	.	.	16BBn
.	.	.	.	16DJJ
[2CC;y	.	.	16r	8r
.	.	.	16GGLK	.
.	.	.	[8C;yJ	16r
.	.	.	.	16D
.	.	.	4C_	16EnLL
.	.	.	.	16G
.	.	.	.	16B-
.	.	.	.	16GJJ
=38	=38	=38	=38	=38
1CC]	1ryy	1ryy	1C]	16A-LL
*	*	*	*	*staff1.1
*	*	*	*	*clefG2
.	.	.	.	16c
.	.	.	.	16f
.	.	.	.	16dJJ
.	.	.	.	16fLL
.	.	.	.	16a-
.	.	.	.	16cc
.	.	.	.	16bnJJ
.	.	.	.	16ccLL
.	.	.	.	16g
.	.	.	.	16f
.	.	.	.	16dJJ
.	.	.	.	4en;
==	==	==	==	==
*-	*-	*-	*-	*-
!!!AFR:  prelude
!!!EFL:  03/96
!!!END:  1994/01/08/
!!!VID:  1569496936 Bach, BWV 847-01
!!!AST:  Baroque
!!!OCY:  Deutschland
!!!ODT:  1722///
!!!PDT:  1801///
!!!EED:  Walter Hewlett
!!!ENC:  Walter Hewlett
!!!YOR:  Bach Gesellschaft Edition xiv
!!!AFT:  enhanced SCORE
!!!RDT:  2011/10/07/ by Andreas Kornstaedt using massScr2hmd
!!!SCA1: Thematisch-systematisches Verzeichnis der musikalischen Werke 
!!!SCA2: Johann Sebastian Bach: Bach-Werke-Verzeichnis (Schmieder)
!!!YEC1: Copyright 1994, 2000 Center for Computer Assisted Research 
!!!YEC2: in the Humanities
!!!YEM1: Rights to all derivative editions reserved.
!!!YEM2: Refer to licensing agreement for further details.
!!!YEN:  United States of America
!!!ref:  @{OTL}, @{SCT}
!!muse2ps: T^@{OTL} @{ONM} in @{OKY}^C^J.S. Bach\n@{SCT}-@{OMV}^
!!muse2ps: u^@{OPR@ENG}, @{OVM@ENG}^jc80
!!muse2ps: s^[{(..)}{(...)}]^
